!!!OTL: Das Bittereleidenslied (2-5) S. 21
!!!id: P0878
**kern
*clefG2
*k[f#]
*G:
{8d
8d
=1
2g
4g
=2
4a
4b
4a
=3
[2.g
=4
2g]}
=5
{4g
=6
2cc
4cc
=7
2b
4a
=8
4g
4a
4b
=9
[2.a
=10
2a]}
=11
{8a
8g
=12
4a
4a
8b
8cc
=13
4dd
4dd
4d
=14
4g
4a
4b
=15
4a
4g}
=16
{4a
=17
4b
8cc
8b
4a
=18
4b
4a
4g
=19
2f#
4a
=20
2g}
==
*-
!!!minrhy: 8
!!!meters: 3/4 ]  ZZ[4
!!!cut: Das Bittereleidenslied (2-5) S. 21
!!!reg: Lothringen
!!!trd: PINCK, Louis: Verklingende Weisen, Bd 2, Metz 1928
!!!rhy1: XX  X__X_  X_X_X_  X__.  ^__
!!!rhy2: X_  X__X_  X__X_  X_X_X_  X__.  ^__
!!!key: P0878  08  G 3/4 ]  ZZ[4
!!!mod: SECHSTONSKALA DUR ?]  AMBITUS[8
!!!kad: 1211
!!!akz: 1211_43122_2512_33-71_
!!!fot: 'a__b__c__d__
!!!for: 'a__b__c__d__
!!!fok: '^a_^a_^d_^d_
!! PHRAS[AUFTAKTIG]
!!!fkt: geistliche, religiöse Lieder
!! LOTH VKL
!! PR[9] 2K[12] 2G[15] 3K[6] 3G[3] 4A[6] 4Ü[0] 5A[0] 6K[0] 6G[0]
!! 7K[0] 7G[0] 8A[0] MEHR[0] SI[41] ABS[34] SR[26] SP[15]
!! ST[16] 2k[18] 2g[24] 3k[3] 3g[3] 4d[3] 4ü[0] 5d[0] 6k[0] 6g[0]
!! 7k[0] 7g[0] 8d[0] mehr[0] si[50] dm[-9] sr[41] sp[9]
!! 1F[63] 2F[37] 3F[0] 4F[0] LF[0] 2P[0] 3P[0] 4P[0] TRI[0] DF[2] AB[35]
!! TF[0] U3K[0] U3[0] U4[0] U4Ü[0] U5[3] U6K[0] U6[0] U7K[3] U7[6]
!! N1[17] N2K[0] N2[6] N3K[14] N3[0] N4[17] N4Ü[0] N5[26] N6K[6] N6[0]
!!!n7k: 3] N7[0] O1[0] O2K[0] O2[0] O3K[0] O3[0] HÖ[0
